X: 50
T:Donnybrook Fair
M:6/8
R:jig
K:G
D|GFG AGA|Bee dBA|BAB GAB|AGE GED|
~G3 AGA|Bee dBA|BAB GAB|1 AGF G2D:|2 AGF G3f||
gfe fed|ege dBA|Bee dBA|Bee e2f|
|1 gfe fed|ege dBA|BAB GAB|AGF G3:|2
gfg aga|bge dBA|BAB GAB|AGF G2D||

